packages/hms_room_kit/lib/assets/icons/earpiece.svg

<svg width="24" height="24" viewBox="0 0 24 24" fill="none" xmlns="http://www.w3.org/2000/svg">
<g id="Phone/Tele">
<path id="Vector" d="M18.5076 21C18.4337 21 18.3599 21 18.2778 20.9918C15.6266 20.7045 13.0493 19.7852 10.825 18.3406C8.75659 17.0274 6.96726 15.238 5.65399 13.1696C4.20939 10.9371 3.29011 8.35157 3.01104 5.70041C2.9782 5.34747 3.01924 5.01094 3.12595 4.68263C3.23265 4.35431 3.41322 4.05882 3.64305 3.80438C3.87287 3.54993 4.15194 3.35294 4.46384 3.21341C4.78395 3.07387 5.12047 3 5.46521 3H7.92759C8.50214 3 9.09312 3.2052 9.55276 3.59918C10.0042 3.98495 10.2997 4.52668 10.3818 5.11765C10.4803 5.84815 10.6608 6.57045 10.9153 7.25171C11.0794 7.69494 11.1205 8.171 11.0138 8.63064C10.9153 9.09029 10.6855 9.5171 10.3571 9.84542L9.76617 10.4364C10.7347 11.9466 12.0151 13.2353 13.5336 14.2038L14.1246 13.6129C14.4611 13.2763 14.8879 13.0465 15.3476 12.9562C15.8072 12.8577 16.2833 12.8906 16.7265 13.0547C17.4078 13.3092 18.1301 13.4897 18.8523 13.5882C19.4597 13.6703 20.0015 13.974 20.3954 14.4337C20.7812 14.8933 20.9946 15.4761 20.9782 16.0752V18.5294C20.9782 18.8741 20.9125 19.2025 20.773 19.5226C20.6335 19.8345 20.4283 20.1218 20.182 20.3516C19.9276 20.5814 19.6321 20.762 19.3038 20.8687C19.0411 20.959 18.7785 21 18.5076 21ZM7.944 4.64159H5.46521C5.3503 4.64159 5.24359 4.66621 5.13689 4.71546C5.03019 4.7565 4.93169 4.82216 4.85782 4.90424C4.77574 4.98632 4.71829 5.08482 4.68545 5.19973C4.65262 5.30643 4.63621 5.42134 4.64441 5.53625C4.89886 7.92476 5.72786 10.2558 7.03292 12.2832C8.22307 14.1546 9.84004 15.7715 11.7114 16.9617C13.7306 18.275 16.0617 19.0958 18.442 19.3584C18.5404 19.3666 18.6554 19.3502 18.7621 19.3174C18.8688 19.2845 18.9673 19.2189 19.0575 19.145C19.1478 19.0711 19.2135 18.9726 19.2545 18.8659C19.3038 18.7592 19.3202 18.6443 19.3202 18.5294V16.067C19.3202 16.0588 19.3202 16.0506 19.3202 16.0506C19.3284 15.8454 19.2545 15.6566 19.1232 15.5007C18.9919 15.3447 18.8113 15.2462 18.6143 15.2216C17.7771 15.1149 16.9399 14.9015 16.1355 14.606C15.9878 14.5486 15.8236 14.5404 15.6759 14.5732C15.5199 14.606 15.3804 14.6799 15.2655 14.7948L14.2313 15.8372C13.9686 16.0999 13.5664 16.1491 13.2463 15.9685C11.063 14.7291 9.25727 12.9152 8.00967 10.7401C7.8373 10.3953 7.88655 9.99316 8.1492 9.73051L9.19161 8.6881C9.29831 8.5814 9.37219 8.44186 9.40502 8.28591C9.43785 8.12996 9.42964 7.97401 9.37219 7.82627C9.06849 7.02189 8.86329 6.18468 8.74838 5.33926C8.72376 5.15048 8.62526 4.9699 8.47752 4.83858C8.32978 4.71546 8.14099 4.64159 7.944 4.64159Z" fill="#EFF0FA"/>
</g>
</svg>

<svg xmlns="http://www.w3.org/2000/svg" width="24" height="24" fill="none" viewBox="0 0 24 24"><path fill="#EFF0FA" d="M18.508 21c-.074 0-.148 0-.23-.008a17.141 17.141 0 0 1-7.453-2.651 16.892 16.892 0 0 1-5.171-5.171A17.128 17.128 0 0 1 3.011 5.7a2.438 2.438 0 0 1 .632-1.896A2.489 2.489 0 0 1 5.465 3h2.463a2.52 2.52 0 0 1 1.625.6c.451.385.747.927.829 1.518.098.73.279 1.452.533 2.134a2.4 2.4 0 0 1 .099 1.379c-.099.46-.329.886-.657 1.214l-.59.591a12.403 12.403 0 0 0 3.767 3.768l.59-.591a2.385 2.385 0 0 1 1.224-.657 2.47 2.47 0 0 1 1.379.099 9.96 9.96 0 0 0 2.125.533 2.46 2.46 0 0 1 2.126 2.487v2.454c0 .345-.066.674-.205.994-.14.311-.345.599-.591.829-.254.23-.55.41-.878.517-.263.09-.525.131-.796.131ZM7.944 4.642H5.465a.767.767 0 0 0-.328.073.732.732 0 0 0-.28.19.671.671 0 0 0-.172.295.926.926 0 0 0-.04.336 15.58 15.58 0 0 0 2.388 6.747 15.328 15.328 0 0 0 4.678 4.679 15.524 15.524 0 0 0 6.731 2.396.883.883 0 0 0 .32-.04.9.9 0 0 0 .296-.173.668.668 0 0 0 .197-.28.794.794 0 0 0 .065-.336v-2.478a.796.796 0 0 0-.197-.55.792.792 0 0 0-.509-.28 11.412 11.412 0 0 1-2.479-.615.803.803 0 0 0-.46-.033.807.807 0 0 0-.41.222l-1.034 1.042a.82.82 0 0 1-.985.132A14.042 14.042 0 0 1 8.01 10.74c-.173-.345-.123-.747.14-1.01l1.042-1.042a.799.799 0 0 0 .213-.402.798.798 0 0 0-.033-.46 11.385 11.385 0 0 1-.624-2.487.822.822 0 0 0-.27-.5.838.838 0 0 0-.534-.197Z"/></svg>
